pizza/images/message.svg

<svg width="17" height="16" viewBox="0 0 17 16" fill="none" xmlns="http://www.w3.org/2000/svg">
<path fill-rule="evenodd" clip-rule="evenodd" d="M17 7.44828C17 11.5553 13.1869 14.8966 8.5 14.8966C7.29215 14.8966 6.12595 14.6786 5.03115 14.2486C3.10278 15.3321 0.437466 15.7057 0.322716 15.7214C0.309399 15.7233 0.296366 15.7241 0.283333 15.7241C0.177082 15.7241 0.0779171 15.6659 0.0297508 15.5713C-0.0246487 15.4651 -0.00311661 15.3368 0.0830173 15.2532C0.734684 14.6188 1.18348 13.2803 1.35093 11.477C0.466366 10.2745 0 8.88386 0 7.44828C0 3.34124 3.8131 0 8.5 0C13.1869 0 17 3.34124 17 7.44828ZM5.66667 7.44828C5.66667 6.83972 5.15837 6.34483 4.53333 6.34483C3.9083 6.34483 3.4 6.83972 3.4 7.44828C3.4 8.05683 3.9083 8.55172 4.53333 8.55172C5.15837 8.55172 5.66667 8.05683 5.66667 7.44828ZM9.63333 7.44828C9.63333 6.83972 9.12503 6.34483 8.5 6.34483C7.87497 6.34483 7.36667 6.83972 7.36667 7.44828C7.36667 8.05683 7.87497 8.55172 8.5 8.55172C9.12503 8.55172 9.63333 8.05683 9.63333 7.44828ZM13.6 7.44828C13.6 6.83972 13.0917 6.34483 12.4667 6.34483C11.8416 6.34483 11.3333 6.83972 11.3333 7.44828C11.3333 8.05683 11.8416 8.55172 12.4667 8.55172C13.0917 8.55172 13.6 8.05683 13.6 7.44828Z" fill="#810000"/>
</svg>

<svg width="17" height="16" fill="none" xmlns="http://www.w3.org/2000/svg"><path fill-rule="evenodd" clip-rule="evenodd" d="M17 7.448c0 4.107-3.813 7.449-8.5 7.449a9.443 9.443 0 01-3.469-.648C3.103 15.332.437 15.706.323 15.72a.284.284 0 01-.293-.15.27.27 0 01.053-.318c.652-.634 1.1-1.973 1.268-3.776C.466 10.274 0 8.884 0 7.448 0 3.341 3.813 0 8.5 0 13.187 0 17 3.341 17 7.448zm-11.333 0c0-.608-.509-1.103-1.134-1.103-.625 0-1.133.495-1.133 1.103 0 .609.508 1.104 1.133 1.104s1.134-.495 1.134-1.104zm3.966 0c0-.608-.508-1.103-1.133-1.103s-1.133.495-1.133 1.103c0 .609.508 1.104 1.133 1.104s1.133-.495 1.133-1.104zm3.967 0c0-.608-.508-1.103-1.133-1.103s-1.134.495-1.134 1.103c0 .609.509 1.104 1.134 1.104.625 0 1.133-.495 1.133-1.104z" fill="#810000"/></svg>
